src/images/icons/logos/facebook.svg

<svg width="22" height="22" viewBox="0 0 22 22" fill="none" xmlns="http://www.w3.org/2000/svg">
<path fill-rule="evenodd" clip-rule="evenodd" d="M22 11C22 17.0751 17.0751 22 11 22C4.92487 22 0 17.0751 0 11C0 4.92487 4.92487 0 11 0C17.0751 0 22 4.92487 22 11ZM12.8026 11.4306H14.7654L15.0252 8.9058H12.8028V7.41849C12.8028 6.86062 13.1714 6.72964 13.4336 6.72964H15.0319V4.27661L12.829 4.2674C10.3843 4.2674 9.82875 6.09864 9.82875 7.26809V8.90344H8.41438V11.4306H9.82875V18.6214H12.8026V11.4306Z" fill="#1A1B22"/>
</svg>

<svg xmlns="http://www.w3.org/2000/svg" width="22" height="22" fill="none"><path fill="#1A1B22" fill-rule="evenodd" d="M22 11c0 6.075-4.925 11-11 11S0 17.075 0 11 4.925 0 11 0s11 4.925 11 11Zm-9.197.43h1.962l.26-2.524h-2.222V7.418c0-.557.368-.688.63-.688h1.599V4.277l-2.203-.01c-2.445 0-3 1.832-3 3.001v1.635H8.414v2.528H9.83v7.19h2.974v-7.19Z" clip-rule="evenodd"/></svg>
